img/refund__02.svg

<svg width="38" height="38" viewBox="0 0 38 38" fill="none" xmlns="http://www.w3.org/2000/svg">
<g clip-path="url(#clip0)">
<path d="M37.6155 8.21821L22.8158 0.0915413C22.5934 -0.0305138 22.3238 -0.0305138 22.1014 0.0915413L16.5231 3.15452C16.4054 3.18554 16.2955 3.24468 16.2045 3.32962L7.30202 8.21821C7.06457 8.34838 6.91701 8.59771 6.91701 8.86878V18.6975C5.41524 19.1672 4.039 19.9955 2.8947 21.1401C-0.0879718 24.1225 -0.848424 28.6713 1.00241 32.459C1.18216 32.8272 1.6266 32.98 1.99479 32.8C2.36328 32.6199 2.51577 32.1755 2.33603 31.8073C0.763515 28.5889 1.40974 24.7241 3.9442 22.1896C5.52917 20.6046 7.63629 19.7317 9.87764 19.7317C12.119 19.7317 14.2261 20.6046 15.8111 22.1896C17.3958 23.7743 18.2687 25.8814 18.2687 28.1228C18.2687 30.3641 17.3958 32.4712 15.8108 34.0562C13.2763 36.5906 9.41145 37.2369 6.19308 35.6644C5.82489 35.4843 5.38045 35.6371 5.2007 36.0053C5.02066 36.3738 5.17315 36.8182 5.54164 36.998C6.92136 37.6723 8.40167 37.9999 9.87126 37.9999C12.435 37.9996 14.9645 37.0018 16.8606 35.1057C17.73 34.2362 18.4171 33.2331 18.9033 32.1427L22.1014 33.8988C22.2127 33.9599 22.3357 33.9904 22.4586 33.9904C22.5815 33.9904 22.7047 33.9599 22.8158 33.8988L37.6155 25.7724C37.8529 25.6419 38.0005 25.3926 38.0005 25.1218V19.9639C38.0005 19.554 37.6682 19.2217 37.2583 19.2217C36.8483 19.2217 36.5161 19.554 36.5161 19.9639V24.6826L23.2031 31.9929V17.4332L27.5968 15.0205V18.8451C27.5968 19.1078 27.7354 19.3507 27.9612 19.4841C28.0778 19.5528 28.2082 19.5873 28.339 19.5873C28.4619 19.5873 28.5851 19.5569 28.6967 19.4954L31.8681 17.7498C32.1053 17.6193 32.2523 17.3703 32.2523 17.0998V12.464L36.5161 10.123V14.0267C36.5161 14.4366 36.8483 14.7689 37.2583 14.7689C37.6682 14.7689 38.0005 14.4366 38.0005 14.0267V8.86878C38.0005 8.598 37.8529 8.34838 37.6155 8.21821ZM22.4586 1.58867L35.7162 8.86878L31.5342 11.1652L18.2765 3.88511L22.4586 1.58867ZM22.4586 16.1486L9.20097 8.86878L13.5364 6.48798L26.7943 13.7678L22.4586 16.1486ZM28.3361 12.9212L15.0785 5.64142L16.7345 4.73195L29.9924 12.0118L28.3361 12.9212ZM16.8606 21.1401C14.9953 19.2748 12.5153 18.2476 9.87764 18.2476C9.37869 18.2476 8.88583 18.2844 8.40138 18.3566V10.123L21.719 17.4358V31.9955L19.4075 30.7262C19.6351 29.8883 19.7528 29.0145 19.7528 28.1228C19.7528 25.4851 18.7256 23.0051 16.8606 21.1401ZM30.7682 16.6612L29.0812 17.5898V14.2056L30.7682 13.2793V16.6612Z" fill="white"/>
<path d="M3.42234 35.3255C3.21128 35.3255 3.00167 35.2356 2.85526 35.0614L2.85381 35.0596C2.58999 34.746 2.63057 34.278 2.94426 34.0142C3.25795 33.7501 3.72617 33.7907 3.98999 34.1044C4.25353 34.4184 4.21381 34.8871 3.90012 35.151C3.76067 35.2681 3.59107 35.3255 3.42234 35.3255Z" fill="white"/>
<path d="M7.38162 28.865C7.57151 28.865 7.7617 28.7926 7.90637 28.6479C8.19629 28.358 8.19629 27.888 7.90637 27.5981L7.39235 27.0838H11.7788C12.8428 27.0838 13.7085 27.9495 13.7085 29.0135C13.7085 30.0775 12.8428 30.9432 11.7788 30.9432H9.17968C8.76974 30.9432 8.4375 31.2754 8.4375 31.6854C8.4375 32.095 8.76974 32.4273 9.17968 32.4273H11.7788C13.6612 32.4273 15.1929 30.8959 15.1929 29.0135C15.1929 27.131 13.6612 25.5997 11.7788 25.5997H7.39235L7.90637 25.0854C8.19629 24.7955 8.19629 24.3255 7.90637 24.0356C7.61674 23.746 7.14679 23.746 6.85687 24.0356L5.07562 25.8168C4.78599 26.1068 4.78599 26.5767 5.07562 26.8666L6.85687 28.6476C7.00183 28.7926 7.19172 28.865 7.38162 28.865Z" fill="white"/>
<path d="M37.2578 16.25C37.0627 16.25 36.8711 16.3294 36.7331 16.4674C36.5951 16.6054 36.5156 16.7968 36.5156 16.9922C36.5156 17.1873 36.5951 17.3786 36.7331 17.5167C36.8711 17.6549 37.0627 17.7341 37.2578 17.7341C37.4529 17.7341 37.6446 17.6549 37.7826 17.5167C37.9206 17.3786 38 17.1873 38 16.9922C38 16.7968 37.9206 16.6054 37.7826 16.4674C37.6446 16.3294 37.4529 16.25 37.2578 16.25Z" fill="white"/>
</g>
<defs>
<clipPath id="clip0">
<rect width="38" height="38" fill="white"/>
</clipPath>
</defs>
</svg>

<svg width="38" height="38" fill="none" xmlns="http://www.w3.org/2000/svg"><g clip-path="url(#clip0)" fill="#fff"><path d="M37.615 8.218L22.815.092a.743.743 0 00-.714 0l-5.578 3.063a.744.744 0 00-.319.175L7.303 8.218a.742.742 0 00-.385.65v9.83a9.825 9.825 0 00-4.022 2.442 9.878 9.878 0 00-1.894 11.32.742.742 0 101.334-.652 8.393 8.393 0 011.608-9.617 8.336 8.336 0 015.934-2.458c2.241 0 4.348.873 5.933 2.458a8.336 8.336 0 012.458 5.933 8.336 8.336 0 01-2.458 5.933 8.393 8.393 0 01-9.618 1.608.742.742 0 10-.651 1.334 9.88 9.88 0 0011.319-1.892 9.875 9.875 0 002.042-2.963l3.198 1.756a.742.742 0 00.715 0l14.8-8.127a.743.743 0 00.385-.65v-5.158a.742.742 0 00-1.485 0v4.719l-13.313 7.31v-14.56l4.394-2.412v3.824a.742.742 0 001.1.65l3.171-1.745a.742.742 0 00.384-.65v-4.636l4.264-2.341v3.904a.742.742 0 101.485 0V8.869a.74.74 0 00-.386-.65zM22.46 1.588l13.257 7.28-4.182 2.297-13.258-7.28L22.46 1.59zm0 14.56L9.2 8.869l4.335-2.38 13.258 7.28-4.335 2.38zm5.877-3.227L15.08 5.641l1.655-.909 13.258 7.28-1.656.91zm-11.475 8.22a9.81 9.81 0 00-6.983-2.893c-.5 0-.992.036-1.477.109v-8.234l13.318 7.313v14.56l-2.312-1.27a9.923 9.923 0 00.346-2.603 9.81 9.81 0 00-2.892-6.983zm13.907-4.48l-1.687.929v-3.384l1.687-.927v3.382z"/><path d="M3.422 35.325a.739.739 0 01-.567-.264l-.001-.001a.742.742 0 11.568.265zm3.96-6.46a.742.742 0 00.525-1.267l-.515-.514h4.387c1.064 0 1.93.866 1.93 1.93s-.866 1.93-1.93 1.93h-2.6a.742.742 0 100 1.483h2.6a3.418 3.418 0 003.414-3.413 3.418 3.418 0 00-3.414-3.414H7.392l.514-.515a.742.742 0 00-1.05-1.05l-1.78 1.782c-.29.29-.29.76 0 1.05l1.78 1.78a.74.74 0 00.526.218zM37.258 16.25a.748.748 0 00-.525.217.748.748 0 00-.217.525c0 .195.08.387.217.525.138.138.33.217.525.217s.387-.08.525-.217a.748.748 0 00.217-.525.748.748 0 00-.217-.525.748.748 0 00-.525-.217z"/></g><defs><clipPath id="clip0"><path fill="#fff" d="M0 0h38v38H0z"/></clipPath></defs></svg>
